src/icons/config.license.svg

<svg width="16" height="16" viewBox="0 0 16 16" fill="none" xmlns="http://www.w3.org/2000/svg">
  <g id="license">
    <g id="Group">
      <path id="&#194;&#169;" fill-rule="evenodd" clip-rule="evenodd"
        d="M7.9962 14C4.65568 14 2 11.3443 2 8.00381C2 4.65568 4.64807 2 7.9962 2C11.3519 2 14 4.65568 14 8.00381C14 11.3443 11.3443 14 7.9962 14ZM7.9962 12.7369C10.6595 12.7369 12.7521 10.6443 12.7521 8.00381C12.7521 5.34813 10.6595 3.26315 7.9962 3.26315C5.34053 3.26315 3.24794 5.35574 3.24794 8.00381C3.24794 10.6443 5.34053 12.7369 7.9962 12.7369Z"
        fill="#0EC2E6" />
      <path id="Path" fill-rule="evenodd" clip-rule="evenodd"
        d="M11 7.1942H9.46113C9.33834 6.60404 8.82265 6.24086 8.13507 6.24086C7.2101 6.24086 6.6453 6.89912 6.6453 7.98865C6.6453 9.10089 7.2101 9.75915 8.13507 9.75915C8.85539 9.75915 9.33834 9.42624 9.46113 8.8512H11C10.8445 10.1829 9.74762 11 8.12688 11C6.19509 11 5 9.84238 5 7.98865C5 6.15763 6.20328 5 8.11869 5C9.70669 5 10.8445 5.86255 11 7.1942Z"
        fill="#FFCB6B" />
    </g>
  </g>
</svg>

<svg xmlns="http://www.w3.org/2000/svg" fill="none" viewBox="0 0 16 16">
  <g fill-rule="evenodd" clip-rule="evenodd">
    <path fill="#0EC2E6"
      d="M7.9962 14C4.6557 14 2 11.3443 2 8.0038 2 4.6557 4.648 2 7.9962 2 11.3519 2 14 4.6557 14 8.0038 14 11.3443 11.3443 14 7.9962 14Zm0-1.2631c2.6633 0 4.7559-2.0926 4.7559-4.733 0-2.6558-2.0926-4.7408-4.7559-4.7408-2.6557 0-4.7483 2.0926-4.7483 4.7407 0 2.6405 2.0926 4.7331 4.7483 4.7331Z" />
    <path fill="#FFCB6B"
      d="M11 7.1942H9.4611c-.1228-.5902-.6385-.9533-1.326-.9533-.925 0-1.4898.6582-1.4898 1.7477 0 1.1123.5648 1.7706 1.4898 1.7706.7203 0 1.2032-.333 1.326-.908H11C10.8445 10.1829 9.7476 11 8.1269 11 6.195 11 5 9.8424 5 7.9886 5 6.1577 6.2033 5 8.1187 5c1.588 0 2.7258.8625 2.8813 2.1942Z" />
  </g>
</svg>
